icons/mediaencoder-filled.svg

<svg width="256" height="256" viewBox="0 0 256 256" fill="none" xmlns="http://www.w3.org/2000/svg">
<path d="M196 0H60C26.8629 0 0 26.8629 0 60V196C0 229.137 26.8629 256 60 256H196C229.137 256 256 229.137 256 196V60C256 26.8629 229.137 0 196 0Z" fill="#00005B"/>
<path d="M200.623 144.233H169.383C169.839 147.446 170.937 150.534 172.613 153.313C174.384 155.958 176.89 158.026 179.823 159.263C183.866 161.077 188.251 162.008 192.683 161.993C195.652 162.064 198.621 161.83 201.543 161.293C204.731 160.725 207.844 159.796 210.823 158.523C211.349 158.103 211.613 158.367 211.613 159.313V174.373C211.638 174.784 211.555 175.194 211.373 175.563C211.192 175.85 210.949 176.093 210.663 176.273C207.378 177.827 203.916 178.972 200.353 179.683C196.1 180.282 191.798 180.45 187.513 180.183C181.049 180.399 174.614 179.225 168.643 176.743C163.846 174.63 159.61 171.424 156.273 167.383C153.155 163.578 150.836 159.184 149.453 154.463C148.085 149.803 147.391 144.97 147.393 140.113C147.391 134.793 148.238 129.506 149.903 124.453C151.482 119.533 153.983 114.959 157.273 110.973C160.515 107.033 164.571 103.84 169.163 101.613C174.326 99.2308 179.967 98.0642 185.653 98.2033C191.189 98.1273 196.68 99.2105 201.773 101.383C205.845 103.227 209.41 106.03 212.163 109.553C214.75 112.911 216.723 116.699 217.993 120.743C219.241 124.639 219.881 128.703 219.893 132.793C219.893 135.12 219.813 137.233 219.653 139.133C219.52 140.265 219.316 141.387 219.043 142.493C219.001 142.843 218.832 143.166 218.569 143.4C218.305 143.634 217.965 143.763 217.613 143.763C216.983 143.763 215.893 143.843 214.363 144.003C212.833 144.163 210.103 144.103 207.833 144.153C205.563 144.203 203.163 144.233 200.623 144.233ZM169.293 131.633H190.063C192.603 131.633 194.479 131.607 195.693 131.553C196.465 131.553 197.236 131.473 197.993 131.313V130.313C198.084 128.417 197.974 126.516 197.663 124.643C196.794 121.95 195.07 119.614 192.752 117.989C190.435 116.365 187.651 115.541 184.823 115.643C182.155 115.483 179.498 116.102 177.175 117.424C174.853 118.747 172.965 120.717 171.743 123.093C170.548 125.818 169.724 128.69 169.293 131.633Z" fill="#9999FF"/>
<path d="M41.4825 77.0134C41.4899 76.8704 41.5262 76.7305 41.5892 76.602C41.6522 76.4735 41.7405 76.3591 41.8489 76.2656C41.9573 76.1722 42.0835 76.1017 42.2199 76.0583C42.3562 76.015 42.5 75.9997 42.6425 76.0134H70.4125C70.7769 75.9646 71.1465 76.0504 71.4521 76.2548C71.7578 76.4591 71.9783 76.768 72.0725 77.1234C72.7725 79.8734 73.6325 81.8634 74.6325 85.7134C75.6325 89.5634 76.7125 93.8834 77.9025 98.5334L81.4025 112.803C82.6091 117.663 83.7891 122.393 84.9425 126.993C86.0958 131.593 87.0825 135.823 87.9025 139.683C88.7025 143.543 89.3691 146.74 89.9025 149.273H90.0525C90.4525 147.053 91.1558 144.093 92.1625 140.393C93.1691 136.693 94.3258 132.543 95.6325 127.943C96.9658 123.343 98.2991 118.613 99.6325 113.753C100.966 108.893 102.299 104.083 103.632 99.3234C104.966 94.5634 106.196 90.15 107.322 86.0833C108.482 82.0133 109.402 79.9234 110.112 77.1734C110.164 76.8538 110.33 76.5642 110.581 76.3595C110.832 76.1549 111.149 76.0495 111.472 76.0634H138.472C138.784 76.0202 139.099 76.1007 139.352 76.2877C139.604 76.4747 139.773 76.7531 139.822 77.0634C139.822 77.0634 139.822 77.1234 139.822 77.1534L143.442 176.483C143.493 176.655 143.5 176.837 143.461 177.012C143.423 177.187 143.341 177.349 143.222 177.483C143.094 177.618 142.938 177.723 142.766 177.792C142.593 177.861 142.408 177.892 142.222 177.883H122.532C122.262 177.892 121.998 177.807 121.782 177.643C121.67 177.53 121.585 177.393 121.533 177.243C121.481 177.092 121.464 176.932 121.482 176.773C121.482 171.383 121.482 166.413 121.402 160.493C121.322 154.573 121.272 148.623 121.172 142.653C121.072 136.683 121.072 130.943 121.172 125.453C121.272 119.963 121.322 114.883 121.322 110.233C121.322 105.583 121.322 101.543 121.402 98.1034C121.482 94.6634 121.472 92.1034 121.482 90.4134H121.332C120.726 93.08 119.922 96.5434 118.922 100.803C117.922 105.063 116.742 109.873 115.382 115.233C114.049 120.567 112.592 126.09 111.012 131.803C109.432 137.517 107.926 143.183 106.492 148.803C105.032 154.41 103.626 159.643 102.272 164.503C100.912 169.363 99.7925 172.963 98.8825 176.663C98.7932 177.033 98.5796 177.361 98.2774 177.592C97.9752 177.824 97.6028 177.944 97.2225 177.933H80.2225C79.816 177.99 79.4031 177.891 79.0671 177.655C78.7311 177.419 78.4972 177.065 78.4125 176.663C77.5125 172.963 76.4725 169.363 75.3225 164.503C74.1725 159.643 72.9925 154.563 71.7825 149.283C70.5725 144.003 69.2925 138.583 67.9425 133.033C66.5925 127.483 65.3025 122.113 64.1025 116.933C62.9025 111.753 61.8125 106.933 60.8625 102.343C59.9125 97.7534 59.0125 93.7434 58.2125 90.2834H57.9025V102.813C57.9025 107.68 57.8258 113.047 57.6725 118.913C57.5191 124.78 57.3691 130.91 57.2225 137.303C57.0758 143.703 56.8991 150.31 56.6925 157.123C56.4925 163.943 56.2425 169.993 55.9425 176.653C55.9425 177.503 55.5425 177.923 54.7425 177.923H37.2725C36.9229 177.942 36.5756 177.858 36.2725 177.683C36.0191 177.523 35.9425 177.127 36.0425 176.493L41.4825 77.0134Z" fill="#9999FF"/>
</svg>

<svg xmlns="http://www.w3.org/2000/svg" width="256" height="256" fill="none"><path fill="#00005B" d="M196 0H60C26.863 0 0 26.863 0 60v136c0 33.137 26.863 60 60 60h136c33.137 0 60-26.863 60-60V60c0-33.137-26.863-60-60-60"/><path fill="#99F" d="M200.623 144.233h-31.24a24.2 24.2 0 0 0 3.23 9.08 16.3 16.3 0 0 0 7.21 5.95 31.2 31.2 0 0 0 12.86 2.73 43.3 43.3 0 0 0 8.86-.7 42.7 42.7 0 0 0 9.28-2.77q.79-.63.79.79v15.06c.025.411-.058.821-.24 1.19a2.3 2.3 0 0 1-.71.71 44.5 44.5 0 0 1-10.31 3.41 63.7 63.7 0 0 1-12.84.5 45.2 45.2 0 0 1-18.87-3.44 33.6 33.6 0 0 1-12.37-9.36 36.6 36.6 0 0 1-6.82-12.92 50.9 50.9 0 0 1-2.06-14.35 50 50 0 0 1 2.51-15.66 40.7 40.7 0 0 1 7.37-13.48 35.4 35.4 0 0 1 11.89-9.36 37.2 37.2 0 0 1 16.49-3.41 39.7 39.7 0 0 1 16.12 3.18 27.7 27.7 0 0 1 10.39 8.17 36 36 0 0 1 5.83 11.19 39.9 39.9 0 0 1 1.9 12.05q0 3.49-.24 6.34a27 27 0 0 1-.61 3.36 1.44 1.44 0 0 1-1.43 1.27c-.63 0-1.72.08-3.25.24s-4.26.1-6.53.15-4.67.08-7.21.08m-31.33-12.6h20.77q3.81 0 5.63-.08c.772 0 1.543-.08 2.3-.24v-1a26.8 26.8 0 0 0-.33-5.67 13 13 0 0 0-12.84-9 13.78 13.78 0 0 0-13.08 7.45 33.3 33.3 0 0 0-2.45 8.54m-127.81-54.62a1.06 1.06 0 0 1 1.16-1h27.77a1.51 1.51 0 0 1 1.66 1.11c.7 2.75 1.56 4.74 2.56 8.59s2.08 8.17 3.27 12.82l3.5 14.27q1.809 7.29 3.54 14.19 1.73 6.9 2.96 12.69 1.2 5.79 2 9.59h.15q.6-3.33 2.11-8.88t3.47-12.45q2-6.9 4-14.19t3.999-14.43q2.001-7.14 3.69-13.24c1.16-4.07 2.08-6.16 2.79-8.91a1.323 1.323 0 0 1 1.36-1.11h27a1.2 1.2 0 0 1 1.35 1v.09l3.62 99.33a1.05 1.05 0 0 1-.22 1 1.3 1.3 0 0 1-1 .4h-19.69a1.18 1.18 0 0 1-.75-.24 1.06 1.06 0 0 1-.3-.87c0-5.39 0-10.36-.08-16.28s-.13-11.87-.23-17.84-.1-11.71 0-17.2.15-10.57.15-15.22 0-8.69.08-12.13.07-6 .08-7.69h-.15q-.91 4-2.41 10.39t-3.54 14.43a688 688 0 0 1-4.37 16.57 882 882 0 0 0-4.52 17 961 961 0 0 1-4.22 15.7c-1.36 4.86-2.48 8.46-3.39 12.16a1.66 1.66 0 0 1-1.66 1.27h-17a1.62 1.62 0 0 1-1.81-1.27c-.9-3.7-1.94-7.3-3.09-12.16s-2.33-9.94-3.54-15.22-2.49-10.7-3.84-16.25-2.64-10.92-3.84-16.1-2.29-10-3.24-14.59-1.85-8.6-2.65-12.06h-.31v12.53q0 7.3-.23 16.1t-.45 18.39q-.22 9.6-.53 19.82c-.2 6.82-.45 12.87-.75 19.53 0 .85-.4 1.27-1.2 1.27h-17.47a1.8 1.8 0 0 1-1-.24q-.38-.24-.23-1.19z"/></svg>
